icons/lines/usd-coin--usdc-.svg

<svg xmlns="http://www.w3.org/2000/svg" width="24" height="24" viewBox="0 0 24 24" fill="none" stroke="currentColor" stroke-width="2" stroke-linecap="round" stroke-linejoin="round" >
  <path d="M16.9004 16.9C19.6004 14.2 19.6004 9.7 16.9004 7" stroke-miterlimit="10"/>
  <path d="M7.1002 7.10001C4.4002 9.80001 4.4002 14.3 7.1002 17" stroke-miterlimit="10"/>
  <path d="M9.7002 13.6C9.7002 14.5 10.4002 15.2 11.3002 15.2H13.0002C13.7002 15.2 14.4002 14.6 14.4002 13.8C14.4002 12.9 14.0002 12.6 13.5002 12.4L10.7002 11.4C10.0002 11.3 9.7002 11 9.7002 10.2C9.7002 9.39999 10.3002 8.79999 11.1002 8.79999H12.9002C13.8002 8.79999 14.5002 9.49999 14.5002 10.4"/>
  <path d="M12 7.79999V16.2"/>
  <path d="M12 22C17.5228 22 22 17.5228 22 12C22 6.47715 17.5228 2 12 2C6.47715 2 2 6.47715 2 12C2 17.5228 6.47715 22 12 22Z" stroke-miterlimit="10"/>
  </svg>

<svg xmlns="http://www.w3.org/2000/svg" width="24" height="24" viewBox="0 0 24 24" fill="none" stroke="currentColor" stroke-width="2" stroke-linecap="round" stroke-linejoin="round">
  <path d="M12 7.8v8.4" />
  <path d="M16.9 16.9c2.7-2.7 2.7-7.2 0-9.9" />
  <path d="M7.1 7.1c-2.7 2.7-2.7 7.2 0 9.9" />
  <path d="M9.7 13.6a1.58 1.58 0 0 0 1.6 1.6H13c.7 0 1.4-.6 1.4-1.4 0-.9-.4-1.2-.9-1.4l-2.8-1c-.7-.1-1-.4-1-1.2a1.367 1.367 0 0 1 1.4-1.4h1.8a1.58 1.58 0 0 1 1.6 1.6" />
  <circle cx="12" cy="12" r="10" />
</svg>
